packages/synapse-interface/assets/chains/polygon.svg

<svg fill="none" height="48" viewBox="0 0 48 48" width="48" xmlns="http://www.w3.org/2000/svg" xmlns:xlink="http://www.w3.org/1999/xlink"><linearGradient id="a" gradientUnits="userSpaceOnUse" x1="0" x2="41.718" y1="0" y2="52.95"><stop offset=".145" stop-color="#982ecc"/><stop offset=".853" stop-color="#7c3fe4"/></linearGradient><rect fill="url(#a)" height="48" rx="24" width="48"/><path d="m30.7889 29.0525 6.6413-3.8236c.3513-.2025.5698-.5795.5698-.9845v-7.6485c0-.4043-.2185-.7819-.5698-.9844l-6.6413-3.8236c-.3512-.2025-.7882-.2019-1.1395 0l-6.6413 3.8236c-.3512.2025-.5697.5795-.5697.9844v13.6672l-4.657 2.6807-4.6569-2.6807v-5.3632l4.6569-2.6807 3.0721 1.7682v-3.5975l-2.5023-1.4404c-.1727-.0992-.3697-.1514-.5698-.1514-.2 0-.3971.0522-.5697.1514l-6.6419 3.8243c-.3513.2024-.5698.5795-.5698.9844v7.6479c0 .4043.2185.7819.5698.9845l6.6413 3.8241c.3512.2019.7876.2019 1.1395 0l6.6413-3.8235c.3512-.2026.5697-.5802.5697-.9845v-13.6672l.084-.0481 4.573-2.6326 4.6568 2.6813v5.3626l-4.6568 2.6813-3.0673-1.7658v3.5975l2.4975 1.4386c.3513.2019.7883.2019 1.1395 0z" fill="#fff"/></svg>

<svg width="48" height="48" viewBox="0 0 48 48" fill="none" xmlns="http://www.w3.org/2000/svg">
<rect width="48" height="48" rx="24" fill="url(#paint0_linear_1275_22500)"/>
<path d="M30.7889 29.0525L37.4302 25.2289C37.7815 25.0264 38 24.6494 38 24.2444V16.5959C38 16.1916 37.7815 15.814 37.4302 15.6115L30.7889 11.7879C30.4377 11.5854 30.0007 11.586 29.6494 11.7879L23.0081 15.6115C22.6569 15.814 22.4384 16.191 22.4384 16.5959V30.2631L17.7814 32.9438L13.1245 30.2631V24.8999L17.7814 22.2192L20.8535 23.9874V20.3899L18.3512 18.9495C18.1785 18.8503 17.9815 18.7981 17.7814 18.7981C17.5814 18.7981 17.3843 18.8503 17.2117 18.9495L10.5698 22.7738C10.2185 22.9762 10 23.3533 10 23.7582V31.4061C10 31.8104 10.2185 32.188 10.5698 32.3906L17.2111 36.2147C17.5623 36.4166 17.9987 36.4166 18.3506 36.2147L24.9919 32.3912C25.3431 32.1886 25.5616 31.811 25.5616 31.4067V17.7395L25.6456 17.6914L30.2186 15.0588L34.8754 17.7401V23.1027L30.2186 25.784L27.1513 24.0182V27.6157L29.6488 29.0543C30.0001 29.2562 30.4371 29.2562 30.7883 29.0543L30.7889 29.0525Z" fill="white"/>
<defs>
<linearGradient id="paint0_linear_1275_22500" x1="0" y1="0" x2="41.7177" y2="52.9497" gradientUnits="userSpaceOnUse">
<stop offset="0.144679" stop-color="#982ECC"/>
<stop offset="0.85326" stop-color="#7C3FE4"/>
</linearGradient>
</defs>
</svg>
